packages/axiom-materials/src/icon_svgs/bar-chart.svg

<?xml version="1.0" encoding="UTF-8"?>
<svg width="16px" height="16px" viewBox="0 0 16 16" version="1.1" xmlns="http://www.w3.org/2000/svg" xmlns:xlink="http://www.w3.org/1999/xlink">
    <!-- Generator: Sketch 45.2 (43514) - http://www.bohemiancoding.com/sketch -->
    <title>bar-chart</title>
    <desc>Created with Sketch.</desc>
    <defs></defs>
    <g id="Page-1" stroke="none" stroke-width="1" fill="none" fill-rule="evenodd">
        <g id="bar-chart" fill="#000000">
            <path d="M6.5,2 L9.5,2 L9.5,13 L6.5,13 L6.5,2 Z M11,5 L14,5 L14,13 L11,13 L11,5 Z M2,7 L5,7 L5,13 L2,13 L2,7 Z" id="Mask"></path>
        </g>
    </g>
</svg>

<svg height="16" viewBox="0 0 16 16" width="16" xmlns="http://www.w3.org/2000/svg"><path d="m6.5 2h3v11h-3zm4.5 3h3v8h-3zm-9 2h3v6h-3z" fill-rule="evenodd"/></svg>
